!!!!SEGMENT: pl-wtm--r-1461--015_stefani-jozef--wszechstronne-cwiczenia-glosowe-oktawy-proste.krn
!!!cenid: 18xx:2192
!!!COM: Stefani, Józef
!!!COM-rismid: pe30024097
!!!CDT: 1800/04/16-1876/03/19
!!!CNT: Polish
!!!GTL: Wszechstronne ćwiczenia głosowe
!!!OTL: Oktawy proste
!!!PDT:
!!!AGN: Secular
!!!SMS-siglum: PL-Wtm
!!!SMS-shelfmark: R 1461
!!!SMS-shelfwork: 015 G
!!!SMS-variant:
!!!SMS-altvar:
!!!NIFC-rismid: 1001120710
!!!URL-scan: http://repozytorium.nifc.pl/skany/pl-wtm-nut--r1461
!!!ONB-nifc: UWAGA: skan 0010, s. 17
!!!key:
**kern	**kern	**kern	**text	**text
*part3	*part2	*part1	*part1	*part1
*staff3	*staff2	*staff1	*staff1	*staff1
*Iempty	*Iforte	*Itenor	*	*
*	*I"Fortepian	*I"Sopran / Tenor	*	*
*clefF4	*clefG2	*clefG2	*	*
*k[]	*k[]	*k[]	*	*
*C:	*C:	*C:	*	*
*M2/2	*M2/2	*M2/2	*	*
*met(c|)	*met(c|)	*met(c|)	*	*
=1	=1	=1	=1	=1
1C 1CC	2r	2c^>/	do	c
*	*	*2\right	*	*
.	2cc 2g 2e/	2cc^\	do	c
=2	=2	=2	=2	=2
1BB 1BBB	2r	2d/	re	d
.	2cc 2g 2f/	2dd\	re	d
=3	=3	=3	=3	=3
*k[]	*k[]	*k[]	*	*
1C 1CC	2r	2e/	mi	.
.	2ee 2cc 2g/	2ee\	mi	.
=4	=4	=4	=4	=4
1AA 1AAA	2r	2f/	fa	.
*	*2\right	*	*	*
.	2ff 2cc 2f\	2ff\	fa	.
=5	=5	=5	=5	=5
1E 1EE	2r	2g/	sol	.
.	2gg 2cc 2g\	2gg\	sol	.
=6	=6	=6	=6	=6
1F 1FF	2r	2a/	la	.
.	2aa 2ff 2cc\	2aa\	la	.
!!LO:LB:g=original
=7||	=7||	=7||	=7||	=7||
1F#X 1FF#X	2r	2aa\	la	.
.	2a 2d 2c/	2a/	la	.
=8	=8	=8	=8	=8
1G 1GG	2r	2gg\	sol	.
.	2g 2d 2B/	2g/	sol	.
=9	=9	=9	=9	=9
1BB 1BBB	2r	2ff\	fa	.
.	2f 2d 2G</	2f/	fa	.
=10	=10	=10	=10	=10
1C 1CC	2r	2ee\	mi	.
.	2e 2c 2G</	2e/	mi	.
=11	=11	=11	=11	=11
1F 1FF	2r	2dd\	re	.
.	2d 2B 2G</	2d/	re	.
=12	=12	=12	=12	=12
1E 1EE	2r	2cc\	do	.
!	!	!LO:TX:t=P:problem=podwójna kreska taktowa	!	!
.	2c 2G</	2c/	do	.
!!LO:LB:g=original
=13	=13	=13	=13	=13
*2\right	*	*	*	*
2F 2FF\	2d 2c 2A</	1d	re	.
2G 2GG\	2d 2B 2G</	.	.	.
=14	=14	=14	=14	=14
2.C 2.CC\	2.c 2.G< 2.E</	2.c/	do.	.
4r	4r	4r	.	.
==	==	==	==	==
*-	*-	*-	*-	*-
!!!system-decoration: s1{(s2,s3)}
!!!RDF**kern: > = above
!!!RDF**kern: < = below
!!!AIN: 1 empty 1 forte 1 tenor
!!!ENC: Marta Lawrence
!!!END: 2021-06-03
!!!ENC: Katarzyna Serwa
!!!END: 2021-05-17
